X:1
T:Derriere Chez Nous
M:2/4
L:1/8
R:bourree
Z:robin.beech@mcgill.ca
K:G
D2 E/z/D | A2 A/z/B | cz/B/ AG | A3/2z/ EF | G2 G/z/F | G2 G/z/A | B>AGF | E2 D2 ::
D2E/z/D | A2 A/z/G | E>E F/z/E- | E EF/z/E | D2E/z/D | A2A/z/G | E>E F/z/E | D4 :|
